X: 1
T: The Cage
C: James Hill
M: 4/4
L: 1/8
S: John Robson ms (1874)
K: Amaj
AB|cBdc BAcB|A2E2 E2FG|AGBA cBdB|BABc B2AB|
cBdc BAcB|A2E2 E2FG|AGBA FdBG|B2A2 A2:|
|:(3efg|aAce agba|gfag f2e^d|eEGB e^dfe|=dced c2AB|
cBdc BAcB|AGBA GFED|CEAd cBAG|B2A2 A2:|
